X:0509
M:6/8
L:1/8
Q:3/8=120
K:C
d   |d2c B2A| GBd      g2d| e2A     (B/c/d).B|   G3- G2::
d   |e2c A2c|(B/c/d).B G2d|(e/f/g).g gec     |{e}d3- d2
e/f/|gec ceg| dBG      G2G| A2f      efd     |   c3  c2:|

